X:213
T: IM JANUAR DA FUEHREN UNS DIE MAENNER AUF DAS EIS
N: B0700
O: Europa, Mitteleuropa, Deutschland
R: Scherz - Lied
M: 2/4
L: 1/8
K: G
B | BDDB | BDD
B | BBcB | A2z
A | AGFE | BAA
A | AGFE | D2z
D | DDEF | AGG
B | ddcA | d3
d | dcEc | cBD
B | BABc | d3
d | dcEc | cBD
B | BAEF | G2z

@@@ Tune index: 2431
